;Header Start

;FLAVOR:Marlin
;TIME:6666
;Filament used: 0m
;Layer height: 0.24
;MINX:2.14748e+06
;MINY:2.14748e+06
;MINZ:2.14748e+06
;MAXX:-2.14748e+06
;MAXY:-2.14748e+06
;MAXZ:-2.14748e+06


;header_type: 3dp
;thumbnail: data:image/png;base64,iVBORw0KGgoAAAANSUhEUgAAASwAAACWCAYAAABkW7XSAAAT+UlEQVR4Xu2dy5IetRXHZcBcDBRVLBiP7WfAZgHZJlC+sYAQskgRY0yKbCALCDOAE7IjBXjGYFJFZYmvVZA8AJ4ZsqDyBPYjsGG8oMzFwwA2OHXaaCJrpD7nSOpvJPe/q6Y8nlZLR78j/fsctb7+Nq2srF41OEAABECgAQKbIFgNeAkmggAIdAQgWBgIIAACzRCAYDXjKhgKAiAAwcIYAAEQaIYABKsZV8FQEAABCBbGAAiAQDMEIFjNuAqGggAIQLAwBkAABJohAMFqxlUwFARAAIKFMQACINAMAQhWM66CoSAAAhAsjAEQAIFmCECwmnEVDAUBEIBgYQyAAAg0QwCC1YyrYCgIgAAEC2MABECgGQIQrGZcBUNBAAQgWBgDIAACzRCAYDXjKhgKAiAAwcIYAAEQaIYABKsZV8FQEAABCBbGAAiAQDMEIFjNuAqGggAIQLAwBkAABJohAMFqxlUwFARAAIKFMQACINAMAQhWM66CoSAAAhAsjAEQAIFmCECwmnEVDAUBEIBgYQyAAAg0QwCC1YyrYCgIgAAEC2MABECgGQIQrGZcBUNBAAQgWBgDIAACzRCAYDXjKhgKAiAAwcIYAAEQaIYABKsZV8FQEAABCBbGAAiAQDMEIFjNuAqGggAIQLAwBkAABJohAMFqxlUwFARAAIKFMQACINAMAQhWM66CoSAAAhAsjAEQAIFmCECwmnEVDAUBEIBgYQyAAAg0QwCC1YyrYCgIgAAEC2MABECgGQIQrGZcBUNBAAQgWBgDIAACzRCAYFXkqnPnzpnFxQWzvLxsLlxY7iyj30scV69eVVezadOmddf01WPLp7SlMS63frqebA3VMz093ZkyNTVltm7danbufMDs27dPYx7KDkgAgjUgXG3V8/NHzOLiYneZnUy+aPRNNm17fvkUIUi5JmSnpp6+spZPbhv2+n379pvXXjucixbXFyIAwSoEskQ1p06dNCdPnihRlbgOjVCkClxMRLTi69bDiZZvayyi4kAdOvSsoR8cdRCAYNXhh84KSgfn5+fWLMoRk1IRRgxPrm3a61PELWa7RryeeeaQefbZP1Q0SsZtCgSrIv/7guWapp3gqdGQFIfEnlAZ7TqXpJ0+m3Ovp3SQ0kIcdRCAYNXhh7UIa27uSPe7dmKHxM1d/3InribCSBU+bURUMpLz+0p1pwrXsWPvmV27HqholIzbFAhWRf6np4Szsy8nTy5ftEoJVqr4pIpEjsDktBkaChCsiiYI3chXVlb1z7vr6sMNYw1tZThw4PeD9Eczkf1Fcs211vjciC6lTSt0qdGpbdMV+g8//Fe3vQFHHQQgWHX4Yc2K3bsfybLInXQpkz70RC+lnlC059YTe3KYG13FokrNOhcEK2sIDnoxBGtQvPrKfcHiJnbKBJVYJRUpaTlJm6HoTHOdVOxCou6u67kR2qef/ldrAsoPSACCNSDclKopJbS73LmooJRY5aZvvlBIF/VjYsyJYAl7XXGMpZCUCn700b9T3IhrBiIAwRoIbGq1fYLlr7Hkpn++jZxQxPrkLsrv3r3bHD781+4jRSdOHDcLC2ejKLhIp5R9fXbHzpGIkWDRGhaOeghAsOrxRWfJgQNPmQsXLqyzyp/cqQvLbsWpgtcnbFu2bDFPPvlbc/HiRXP+/Dnz2WefsYLlFohFZ6limiJWdA3ZsWvXLnPs2D8qGyHjNgeCVZn/Z2b+bGh7g5uy2N+lqZa0S74ISOrn0rHLly+bm266yZBw/fjjj+bKlSvJguVGbtI+SctJBJD2X733HgRLynQS5SBYk6CsaIM2jtKO95BgKaqJRmjaOkpscaA23XokYuHbmXJNqK+aemiH++HDf9EiQ/kBCUCwBoSbUrUvWHayp9SlmZxu/anX9dnIRWZDty+5AbhpNtm7Z89e8/rrf0tBj2sGIgDBGghsarX0tgZ6a0OuaOSmUxqB4fqq7YumfOxJoytQ2qeptn360DM++Mx5d7LnIViT5c22trBAb2y49nnC1OhKM+H9yKbEYr5rt2RdzJbXCos0orPlQn0LCZ7ld/DgM+a55/7I+gwFJkcAgjU51qKWaP2K0kKt6OSULykUvtBKBat0SijlEVpbszzoTQ379z8q8hsKTYYABGsynMWtkGAdPTrPlpdOyL6KXKGKlSvRDtuZQgVCtoaehEqbm59/x+zcuVNaHOUmQACCNQHImiZo79Ls7IzmkmjZmNhIhKp0xFOkQz9XMikRnZ19pVt4x1EPAQhWPb7oLKEF99OnTwXf6f7TTz91Gxrtv1Se/t8nQFyE4S+uc5EWt8g9NE6tWBErOux1lpdEtCFYQ3tTXz8ES89s0CsouqIoyz0uXbrUbcKkyXfzzTd3P7Q5k37c3+3E9CejO1lDxnPn3QkvKTskII1gra6umpWVFbN58+Y1Tpaf/deKPrH166boikQLRz0EIFj1+KL7SM7BgwfWWURi9f3333eiRRONDl+sJBFDTlc1QpHTDnet1g5iRrvvrTARN2Jlhd7fe+W3v7T0H84knJ8gAQjWBGFzTUkX3Ll6pGleX7RlJ7hbRisW7rUln0Ryaa5tV7OGFyuLtJAbbZM9D8GaLO9oaxRd0Tfm+OngRpjXl/aliFYo+kupxxdPLqqUChvVG7NnamqrOX36zEa4AW0GCECwKhkWS0uL133FVyVmdWZIFtpDE17zMKCvv7mbWWP2S0Xz6acPGtpEimPjCUCwNt4H0bUrqWmahXBtuqgpn1pWIlZcmidlxaW4MZGdmzuKPVkpkAtfA8EqDFRb3UakgpKISduPlPKSCCcmIJJrYzal9P+++6aQGqY4ufA1EKzCQDXVkVjRvitKB4c+NFFYCVs00ZbfXuq1nIil1mvTYtr1TrvfcWwcAQjWxrFf2yS6gSYM2nSOSKZeKxUtbsE+JqIQrUGHDFs5BItFVL4ARVa0hYF2tPtHbNNnrBw3Qctb319jSrpV0sYUHtIPaNu69+7da2ZmsKG0pN+kdUGwpKQKlesTK2pCsgUgdU+TpO6cbqZGRTltatJJbpuDRuzuv5/Sw6MlTUddAgIQLAGkUkWkC+xclKURrFJbC0oxGLoebp0qJloasbJ92Llzl5mb49+sMXSfx1Q/BGtC3iaxmp19OfiNODETQqkKJ2ZuXUOI1SRSPk50+lzGXZsiTH3+mZqaMjMzs4YiLhzDE4BgDc+4W6ty38AgbVIiWFRXbBJKFpb70qSSk1va5xLl+lLTUn3y2R448LShDaY4hiUAwRqQL0VVtGUhtLjeN3H61po0IiQpawVviP1OJdGmRnalxavPN1jXKunxcF0QrIEYk1i9+ups9w3IsSMkWlKR4czWTHBJ2dTIRPoEjutP6vlSKaL0gcW1FPEV7IpPdRhzHQSrMNi+qKpwU73VSZ/YcU/O/EZi9UrqSRW9HG6cYNm6U9Pq2HWUHiJFzPEcIqzy9Lwa6U0L9D720FfND924H8nkiEOpKC8mdkOzcOuXCpZNjd1rNRxCvBFtlfc0IqwCTKVR1UalR6nRQwE0a1XkCGhJO4aqq69/e/bswUbTQuAhWBkgpUJlm8h9TYofOeREAJprUxHd6CIVispirCjaolcuI01MHU3XroNgJfIjsXrnnXlz/vz56LYCek84vaKXJq791xUv9zW9JCD2J9Gk6i5LFSzpAvfQHSaffffdd2u+s3bZ11PT/30fcjYhTeQI9Z+HYCn52ajqzJnT113pTk4a6F9//XX3pRH2HeI0uO0XR1hh8v9vU0ZbVmKaZte7pD5JGckCe1/00WezJPJLFUJJ32yZb7/91nz55ZedIN1yyy1rfrQ+c98N7/vW1tGXiu/eTWnirMYklEWEJR8DMaHya6BvaaGBToPcv/vaQR77172DSyZuyPpJTGYpNemTSlfcJP2eRB/pSz+++OKLdX50Bcv1o/t7l7r8/HVsLqtQ37DhVDqakBKKSFmh+uSTJdHTPxroFy9evO6bWaghX6Tcu7IbadHvuUfu/q5JCEJfHzmhk/Yvtx9uSki/+z6kG5JNC60/rShJH7CQjVjfko94pIQ9rJaWlsyZM6dEQuVXY79eyn7pKQ3MWCpYQqTc9qUpW+0RWsw1UsHqS0vlU+T/JcmXV65c6f7gCpObwnMRYt82CxIuWpSndBFHmAAEK8DFXVAf28CJiUFKtKJ5KiqNSKw/NKKcYvtG+h0fqI7Th2A5bIYWKu2k3IhJU0IIYlFGn3AMxSYW0Wy0iNkHMrEol3hAuNbTgWAZ06V8lPpRCsgdmqiBq2tM5/tSoVjUlMqnRMqoSe1S7LTpJdl62223rVUR4kQfqqYniiRgYz9GLVgaoVpdXTV33HFHN142+u6cO2hL209bOGgB2h6haIn+Zvm55dy+lLbLFUJOgFKY5tprRYvWxe666y7WBAjXSDeOXhOq09Fvq/H3CdHjbRpQNMA0h11o56ILycCXlJHYllKP7UdIrIkVTTjaxiFJ+fwngCn2SPuZu0etlG2hNNv/Gwm+RLSo72MWrlFFWJqIigYGTcSvvvrKbNmyRTJH1pVxJ2fu4M+tS9K+LyZ+qhZbZ6Inom6EFYJlr/XFW2JXqL5Y2iepzxVgX4RzRc7Wl1KPRrTGKlyjESwSq0OH5G+EJLGiyOqee+5JSgElE0eigqn1aIUhFAVK25YIVklhkIo3t5DfFzlKfOMLun9Nynon3Rw3b96sab57r/xYXtE8GsFaXFw0774r+5YTm+bQqPnhhx9Ug4cbxNLKpGLh15d6Xc5aki9YvqCkTNy+qColeglxKmVXKZ9TPbTOd+utt0qHSVfuxRdfMvv3P6q6ptXCoxGss2c/7t5VZT+4GpvY7mSgiUg712OTx97BQwu6GuHwUxQ/GuEGV6lIIXXiuYLVx1XDxE2ttNdxvHLE2fXNEIJH61i0Hhg6/LF5+fJlQ595fP/9f5oHH3xQ0+1my45GsMhDjzzyq85R5Hh/sIVEg8ranc0xD2snU2idiKtDKmhcCqSZqJq6SglWzAccH+vTvnI+d0mdpXzed8Pzz/Wlg2QzPfihH3pqbd8Asrj4idm+fXuzIqQxfLSCZSGR82kghAawH7n4qYhmUvtO8duT1JUaSUnXfDQDx48Cc6IN269Q/1wuEkalRCZ0Y0mNQH1BTfUjCRQd9rVFdDMloSLBGssxKsF66qnfdZtEXeGxdyypw3PuzJoB3zdhfLHos921N7Y/KrVP9o6f+1nI1Alc2mexCC8WIUm4x/Z/aZlb1tQmCZf92b59h1lc5Dc8S1nVXm5UgnXkyFtmYWFhzSc0mHzBCkU+GqGROlySvtg7s0agQpFcTmTSN1mpXlpHuffee7tiXJRFff7mm2+iiLSTmItapb6QlJPaxt1oUsaSrdNmAq5gPfTQL8wHHxyXdOGGKDMqwXr77TcNPS20h53INi10haHEQrrfjnTE+FFRimC5aZa2Xc1TuEuXLpk777zT3H333ev2Yrn9oCjMvtjQfVghFQKuD75Q5NZb4vrcMeSKmxUr+tcKFo3bF174k3n++Rc4PDfM+VEJ1tmzZ83c3NvXOc8dCL4wpEQmuQM9RZz6oqCUkeqnRn0pm932QZ+Hu/3229fezmkjLvcBB71umF5wmHPE0jZXsHJ8kCL0sai2RAToR1f0f1q7sutYb775lnn88V/nIG3q2pEJ1sdmbu7IOgeFIiytF0OppHTiSMv12ZRTR0iQ/C0bffXTHZ+ebtEP7da2P65oEWN6sWFq1Nkn5FwqqvGllmNIQGN/09jh99d+LMwKlX1CePz4ydFsaejG08rK6lUtyJbL260NsXDb/TsX0of2YaUM+FI8tW2H+ppaB7Gg/UOuaNmXF9JeNnoMrzlKp3hWAGKL4O75VAZu/1LriImdL1h2u82YtjSMUrAefviX1z0ltAPVjbK4iZUzGG3U0RcxcO3nXiuN1LQpsZ1s9qmhhmnIJpezNoqKpY4x4dL6VFs+JGZ9N0SfvStYJFYUYY1tS8MoBctubfAHkGRy5ayTaAc4N+EkosaVkdjUZ4c0auHsiJ2X2BcTOkkklSP8qba5Ua39PfSQwxdoK1juE8IdO3aYhYXxbGkYpWD5WxukEZZ/t9cO2JTyfU/rtNFPaKKEJrs2kglN+pQ6fFu0vPpEz2UV+50T1djNKtUPnD9igmWjKxKwJ574jXnjjb9zpt9Q50e3hkXeO3HieLcf68KF5c6ZNBj9He/+HVoqWClRmL9eE0ofYqPOThhJJFRi5PrtpAhL6Jrcia+N0lLaS/Gt70v/JsTdlGxkZdsmwZqa2moee+yxbkvD2I5RCpZ18vLycidan3++bJaXP096jQx3p5zUgAoJScqknJS9OenYJG0cKvLT9IF8Oz29zWzbNm2mp6fNtm3j+NxgMAMY21NCzUBBWRAAgboIjDrCqssVsAYEQIAjAMHiCOE8CIBANQQgWNW4AoaAAAhwBCBYHCGcBwEQqIYABKsaV8AQEAABjgAEiyOE8yAAAtUQgGBV4woYAgIgwBGAYHGEcB4EQKAaAhCsalwBQ0AABDgCECyOEM6DAAhUQwCCVY0rYAgIgABHAILFEcJ5EACBaghAsKpxBQwBARDgCECwOEI4DwIgUA0BCFY1roAhIAACHAEIFkcI50EABKohAMGqxhUwBARAgCMAweII4TwIgEA1BCBY1bgChoAACHAEIFgcIZwHARCohgAEqxpXwBAQAAGOAASLI4TzIAAC1RCAYFXjChgCAiDAEYBgcYRwHgRAoBoCEKxqXAFDQAAEOAIQLI4QzoMACFRDAIJVjStgCAiAAEcAgsURwnkQAIFqCECwqnEFDAEBEOAI/A9k5VWpdOTwRQAAAABJRU5ErkJggg==
;file_total_lines: 81238
;estimated_time(s): 22267.77
;nozzle_temperature(°C): 205
;nozzle_1_temperature(°C): null
;nozzle_0_diameter(mm): 0.4
;nozzle_1_diameter(mm): null
;build_plate_temperature(°C): 70
;work_speed(mm/minute): 3600
;max_x(mm): 53.002593994140625
;max_y(mm): 65.5050048828125
;max_z(mm): 35
;min_x(mm): -53.002593994140625
;min_y(mm): -65.5050048828125
;min_z(mm): 0

;Header End

; G-code for 3dp engraving
; Generated by Snapmaker Luban 4.2.2
; Sun Oct 09 2022 12:41:7

T0
M82 ;absolute extrusion mode
;Start GCode begin
M104 S215
M140 S70
G28 ;home
G90 ;absolute positioning
G1 X-10 Y-10 F3000
G1 Z0 F1800
M109 S215;Wait for Hotend Temperature
M190 S70;Wait for Bed Temperature
G92 E0
G1 E20 F200
G92 E0
;Start GCode end
G92 E0
G92 E0
G1 F3600 E-6.5
;LAYER_COUNT:145
;LAYER:0
M107
G0 F1440 X106.409 Y108.944 Z0.28
;TYPE:SKIRT
G1 F3600 E0
G1 F2400 X106.945 Y108.446 E0.0511
G1 X107.533 Y107.987 E0.1032
G1 X108.064 Y107.624 E0.14813
G1 X108.734 Y107.241 E0.20203
G1 X109.341 Y106.959 E0.24878
G1 X109.958 Y106.718 E0.29505
G1 X110.473 Y106.56 E0.33267
G1 X111.003 Y106.424 E0.37089
G1 X111.78 Y106.288 E0.42599
G1 X112.436 Y106.227 E0.472
G1 X112.91 Y106.206 E0.50514
G1 X113.678 Y106.195 E0.55879
G1 X206.345 Y106.195 E7.03124
G1 X207.004 Y106.204 E7.07727
G1 X207.52 Y106.225 E7.11334
G1 X208.219 Y106.287 E7.16235
G1 X208.944 Y106.411 E7.21373
G1 X209.633 Y106.59 E7.26345
G1 X210.25 Y106.793 E7.30882
G1 X210.725 Y106.988 E7.34468
G1 X211.237 Y107.228 E7.38418
G1 X211.94 Y107.626 E7.4406
G1 X212.426 Y107.956 E7.48163
G1 X212.993 Y108.395 E7.53172
G1 X213.387 Y108.75 E7.56876
G1 X213.784 Y109.145 E7.60788
G1 X214.29 Y109.732 E7.66201
G1 X214.656 Y110.233 E7.70534
G1 X215.039 Y110.835 E7.75518
G1 X215.29 Y111.3 E7.79209
G1 X215.521 Y111.788 E7.8298
G1 X215.714 Y112.272 E7.86619
G1 X215.9 Y112.816 E7.90635
G1 X216.088 Y113.55 E7.95927
G1 X216.208 Y114.258 E8.00943
G1 X216.275 Y114.895 E8.05416
G1 X216.293 Y115.655 E8.10726
G1 X216.248 Y116.376 E8.15772
G1 X216.166 Y117.031 E8.20383
G1 X215.97 Y117.951 E8.26953
G1 X215.861 Y118.387 E8.30092
G1 X215.289 Y120.545 E8.45685
G1 X214.916 Y121.997 E8.56156
G1 X214.44 Y123.914 E8.69952
G1 X214.102 Y125.313 E8.80005
G1 X213.672 Y127.151 E8.93189
G1 X213.341 Y128.625 E9.03741
G1 X212.919 Y130.569 E9.17635
G1 X212.614 Y132.028 E9.28046
G1 X212.232 Y133.928 E9.41582
G1 X211.943 Y135.422 E9.52211
G1 X211.61 Y137.221 E9.6499
G1 X211.327 Y138.827 E9.7638
G1 X211.018 Y140.663 E9.89384
G1 X210.775 Y142.177 E10.00094
G1 X210.493 Y144.034 E10.13213
G1 X210.253 Y145.713 E10.2506
G1 X210.023 Y147.419 E10.37083
G1 X209.817 Y149.046 E10.48538
G1 X209.598 Y150.897 E10.61557
G1 X209.423 Y152.489 E10.72743
G1 X209.237 Y154.321 E10.85605
G1 X209.075 Y156.069 E10.97866
G1 X208.935 Y157.748 E11.09634
G1 X208.808 Y159.442 E11.21499
G1 X208.679 Y161.375 E11.3503
G1 X208.587 Y162.968 E11.46176
G1 X208.5 Y164.717 E11.58407
G1 X208.428 Y166.498 E11.70857
G1 X208.371 Y168.306 E11.83491
G1 X208.334 Y169.957 E11.95026
G1 X208.306 Y171.889 E12.08521
G1 X208.295 Y173.521 E12.1992
G1 X208.299 Y175.378 E12.32891
G1 X208.318 Y177.118 E12.45045
G1 X208.355 Y179.011 E12.58269
G1 X208.401 Y180.658 E12.69778
G1 X208.472 Y182.634 E12.83588
G1 X208.543 Y184.267 E12.95005
G1 X208.653 Y186.355 E13.09609
G1 X208.742 Y187.855 E13.20104
G1 X208.883 Y189.925 E13.34596
G1 X208.996 Y191.417 E13.45047
G1 X209.18 Y193.634 E13.60585
G1 X209.317 Y195.148 E13.71203
G1 X209.536 Y197.378 E13.86854
G1 X209.679 Y198.745 E13.96454
G1 X209.943 Y201.088 E14.12922
G1 X210.102 Y202.425 E14.22326
G1 X210.396 Y204.757 E14.38744
G1 X210.572 Y206.08 E14.48066
G1 X210.928 Y208.625 E14.66015
G1 X211.108 Y209.854 E14.7469
G1 X211.482 Y212.303 E14.91994
G1 X211.673 Y213.504 E15.00488
G1 X212.124 Y216.235 E15.19821
G1 X212.322 Y217.384 E15.27965
G1 X212.77 Y219.902 E15.45828
G1 X212.966 Y220.969 E15.53406
G1 X213.498 Y223.772 E15.73333
G1 X213.717 Y224.894 E15.81318
G1 X214.252 Y227.546 E16.00214
G1 X214.468 Y228.591 E16.07667
G1 X215.038 Y231.271 E16.26805
G1 X215.218 Y232.183 E16.33298
G1 X215.321 Y232.86 E16.38081
G1 X215.369 Y233.423 E16.42027
G1 X215.388 Y233.95 E16.45711
G1 X215.373 Y234.516 E16.49665
G1 X215.332 Y235.054 E16.53434
G1 X215.242 Y235.672 E16.57796
G1 X215.093 Y236.392 E16.62931
G1 X214.863 Y237.166 E16.68571
G1 X214.633 Y237.77 E16.73085
G1 X214.379 Y238.338 E16.77431
G1 X213.954 Y239.108 E16.83574
G1 X213.538 Y239.724 E16.88766
G1 X213.138 Y240.249 E16.93376
G1 X212.601 Y240.845 E16.98979
G1 X212.103 Y241.317 E17.03772
G1 X211.581 Y241.753 E17.08522
G1 X210.88 Y242.246 E17.14508
G1 X210.381 Y242.543 E17.18564
G1 X209.94 Y242.779 E17.22058
G1 X209.368 Y243.036 E17.26438
G1 X208.668 Y243.3 E17.31663
G1 X207.897 Y243.519 E17.37261
G1 X207.259 Y243.648 E17.41807
G1 X206.647 Y243.738 E17.46128
G1 X205.739 Y243.792 E17.52481
G1 X205.646 Y243.795 E17.53131
G1 X204.94 Y243.805 E17.58063
G1 X115.055 Y243.805 E23.85876
G1 X114.299 Y243.794 E23.91157
G1 X113.447 Y243.747 E23.97117
G1 X112.788 Y243.657 E24.01763
G1 X112.079 Y243.516 E24.06812
G1 X111.312 Y243.294 E24.12389
G1 X110.714 Y243.07 E24.16849
G1 X110.152 Y242.824 E24.21134
G1 X109.683 Y242.578 E24.24833
G1 X109.086 Y242.226 E24.29674
G1 X108.443 Y241.772 E24.35171
G1 X107.931 Y241.346 E24.39824
G1 X107.394 Y240.841 E24.44972
G1 X106.863 Y240.248 E24.50532
G1 X106.493 Y239.77 E24.54754
G1 X106.198 Y239.348 E24.5835
G1 X105.889 Y238.835 E24.62533
G1 X105.642 Y238.375 E24.6618
G1 X105.423 Y237.898 E24.69846
G1 X105.218 Y237.394 E24.73646
G1 X105.031 Y236.831 E24.7779
G1 X104.836 Y236.094 E24.83115
G1 X104.694 Y235.274 E24.88927
G1 X104.638 Y234.694 E24.92997
G1 X104.61 Y234.057 E24.97451
G1 X104.625 Y233.539 E25.0107
G1 X104.677 Y232.87 E25.05757
G1 X104.743 Y232.419 E25.08941
G1 X104.845 Y231.84 E25.13047
G1 X104.934 Y231.4 E25.16183
G1 X105.519 Y228.655 E25.35786
G1 X105.741 Y227.582 E25.43439
G1 X106.314 Y224.731 E25.63751
G1 X106.518 Y223.684 E25.71201
G1 X107.027 Y221.001 E25.90275
G1 X107.238 Y219.854 E25.98421
G1 X107.688 Y217.325 E26.16362
G1 X107.891 Y216.138 E26.24774
G1 X108.328 Y213.493 E26.43498
G1 X108.515 Y212.318 E26.51809
G1 X108.915 Y209.7 E26.70307
G1 X109.097 Y208.457 E26.79081
G1 X109.425 Y206.109 E26.9564
G1 X109.601 Y204.785 E27.04969
G1 X109.911 Y202.322 E27.22308
G1 X110.069 Y200.986 E27.31705
G1 X110.324 Y198.708 E27.47715
G1 X110.468 Y197.34 E27.57323
G1 X110.686 Y195.113 E27.72952
G1 X110.825 Y193.581 E27.83696
G1 X111.007 Y191.379 E27.99129
G1 X111.116 Y189.932 E28.09264
G1 X111.262 Y187.77 E28.24399
G1 X111.354 Y186.216 E28.35272
G1 X111.462 Y184.122 E28.49918
G1 X111.53 Y182.572 E28.60754
G1 X111.6 Y180.615 E28.74432
G1 X111.645 Y179.024 E28.85549
G1 X111.682 Y177.09 E28.9906
G1 X111.701 Y175.333 E29.11332
G1 X111.705 Y173.377 E29.24994
G1 X111.695 Y171.756 E29.36317
G1 X111.669 Y169.986 E29.48681
G1 X111.629 Y168.259 E29.60746
G1 X111.572 Y166.477 E29.73199
G1 X111.503 Y164.778 E29.85076
G1 X111.411 Y162.922 E29.98055
G1 X111.313 Y161.244 E30.09796
G1 X111.186 Y159.343 E30.23103
G1 X111.059 Y157.652 E30.34947
G1 X110.918 Y155.98 E30.46667
G1 X110.765 Y154.329 E30.58248
G1 X110.577 Y152.468 E30.71313
G1 X110.387 Y150.741 E30.83448
G1 X110.18 Y149.006 E30.95652
G1 X109.979 Y147.431 E31.06742
G1 X109.727 Y145.57 E31.19859
G1 X109.498 Y143.975 E31.31114
G1 X109.222 Y142.157 E31.43957
G1 X108.962 Y140.537 E31.55417
G1 X108.645 Y138.663 E31.68693
G1 X108.383 Y137.187 E31.79163
G1 X108.054 Y135.41 E31.91786
G1 X107.761 Y133.89 E32.02598
G1 X107.369 Y131.944 E32.16463
G1 X107.061 Y130.473 E32.2696
G1 X106.657 Y128.611 E32.40268
G1 X106.33 Y127.16 E32.50657
G1 X105.876 Y125.22 E32.64573
G1 X105.543 Y123.841 E32.74482
G1 X105.074 Y121.956 E32.88049
G1 X104.701 Y120.507 E32.985
G1 X104.188 Y118.568 E33.12509
G1 X103.956 Y117.635 E33.19224
G1 X103.836 Y117.049 E33.23402
G1 X103.754 Y116.406 E33.2793
G1 X103.709 Y115.709 E33.32808
G1 X103.714 Y115.18 E33.36503
G1 X103.747 Y114.622 E33.40407
G1 X103.854 Y113.849 E33.45858
G1 X103.994 Y113.215 E33.50393
G1 X104.183 Y112.558 E33.55168
G1 X104.451 Y111.849 E33.60462
G1 X104.754 Y111.215 E33.6537
G1 X105.081 Y110.632 E33.70039
G1 X105.511 Y109.992 E33.75424
G1 X105.951 Y109.446 E33.80322
G1 X106.409 Y108.944 E33.85068
G1 F3600 E27.35068
;MESH:C:\Users\Jeromey\AppData\Roaming\snapmaker-luban/Tmp/08962499_41715054.stl
G0 F1440 X108.261 Y110.808
G0 X109.338 Y111.969
G0 X124.925 Y132.812
G0 X125.336 Y134.74
G0 X125.238 Y134.724
;TYPE:WALL-INNER
G1 F3600 E33.85068
G1 F2400 X125.277 Y134.218 E33.88613
G1 X125.23 Y133.737 E33.91988
G1 X125.101 Y133.272 E33.95359
G1 X124.891 Y132.832 E33.98764
